images/calendar.svg

<svg width="22" height="19" viewBox="0 0 22 19" fill="none" xmlns="http://www.w3.org/2000/svg">
<path fill-rule="evenodd" clip-rule="evenodd" d="M8.11882 0.0624694C8.03778 0.10443 7.93142 0.192366 7.88247 0.257906C7.80882 0.35649 7.79094 0.453131 7.77883 0.817805L7.76417 1.25854L6.08141 1.25862C4.56509 1.25867 4.38387 1.26598 4.24911 1.33257C4.16686 1.37318 4.05565 1.47105 4.00202 1.55003C3.90714 1.68968 3.90447 1.72231 3.90447 2.74377V3.79393H12.9522H22L21.9872 2.71939C21.9752 1.70988 21.969 1.63762 21.8854 1.52564C21.8364 1.46006 21.7301 1.37318 21.649 1.33257C21.5162 1.26594 21.3359 1.25867 19.815 1.25862L18.1284 1.25854L18.1283 0.867668C18.1282 0.579055 18.1085 0.438891 18.0531 0.331897C18.0118 0.252201 17.9234 0.147616 17.8566 0.0994861C17.7666 0.0345379 17.6705 0.0119729 17.4838 0.0119729C17.2971 0.0119729 17.201 0.0345379 17.1109 0.0994861C17.0442 0.147616 16.9558 0.252201 16.9145 0.331897C16.859 0.438891 16.8393 0.579055 16.8393 0.867668L16.8392 1.25854H15.2062H13.5733L13.5732 0.867668C13.5731 0.579055 13.5535 0.438891 13.498 0.331897C13.4567 0.252201 13.3683 0.147616 13.3016 0.0994861C13.2115 0.0345379 13.1154 0.0119729 12.9287 0.0119729C12.742 0.0119729 12.6459 0.0345379 12.5558 0.0994861C12.4891 0.147616 12.4007 0.252201 12.3594 0.331897C12.3039 0.438891 12.2842 0.579055 12.2842 0.867668L12.2841 1.25854H10.6726H9.06117L9.06108 0.867668C9.06104 0.579055 9.04136 0.438891 8.98588 0.331897C8.94458 0.252201 8.85902 0.149729 8.79577 0.104134C8.73256 0.0585818 8.58752 0.0134096 8.47348 0.0037329C8.32857 -0.00856375 8.22183 0.00914171 8.11882 0.0624694ZM3.84663 5.54323C3.83125 5.80809 3.7881 6.25973 3.7508 6.54682C3.71346 6.83391 3.62648 7.34619 3.55751 7.68521C3.4885 8.02423 3.35348 8.56617 3.25739 8.88952C3.16135 9.21287 2.98435 9.72464 2.86411 10.0268C2.74387 10.3289 2.522 10.8196 2.37109 11.1172C2.22017 11.4147 1.97303 11.8568 1.8219 12.0996C1.67072 12.3423 1.40549 12.7264 1.23249 12.953C1.05944 13.1796 0.720729 13.5684 0.479825 13.817C0.145628 14.1617 0.0348452 14.3049 0.0128003 14.4206C-0.00314244 14.5041 -0.00434566 14.6303 0.0100501 14.7012C0.0244459 14.772 0.0746807 14.8831 0.121693 14.948C0.168704 15.0129 0.273299 15.0969 0.354131 15.1346C0.488248 15.1972 1.25234 15.2032 9.06117 15.2032C16.8241 15.2032 17.6347 15.1969 17.7663 15.1355C17.8461 15.0982 18.0921 14.8826 18.313 14.6564C18.5338 14.4301 18.8805 14.0276 19.0835 13.762C19.2863 13.4963 19.5493 13.1253 19.6678 12.9374C19.7864 12.7495 19.98 12.4246 20.0981 12.2154C20.2162 12.0062 20.4203 11.6042 20.5516 11.322C20.6829 11.0398 20.8792 10.5678 20.9878 10.2731C21.0965 9.97847 21.2524 9.50778 21.3343 9.22711C21.4163 8.94644 21.5492 8.39356 21.6297 7.99846C21.7101 7.60336 21.8059 7.0424 21.8425 6.75189C21.879 6.46138 21.9196 6.03353 21.9326 5.80112C21.9456 5.56871 21.9654 5.30727 21.9766 5.22009L21.9969 5.06163H12.9357H3.87461L3.84663 5.54323ZM21.7459 11.813C21.6203 12.0922 21.3906 12.5461 21.2356 12.8217C21.0806 13.0973 20.7932 13.5605 20.5969 13.851C20.4007 14.1415 20.0767 14.5789 19.877 14.8229C19.6773 15.0669 19.3088 15.4624 19.0582 15.7016C18.7241 16.0205 18.5305 16.1697 18.333 16.2606C18.1848 16.3288 17.9594 16.404 17.8322 16.4277C17.681 16.456 15.2305 16.4709 10.7506 16.4709H3.90035L3.91315 17.5454C3.92518 18.5549 3.93133 18.6272 4.01495 18.7392C4.0639 18.8048 4.17026 18.8917 4.2513 18.9324C4.39049 19.0024 4.87565 19.0059 12.9931 18.9958L21.5876 18.9852L21.722 18.8909C21.7959 18.8391 21.8878 18.7314 21.9263 18.6516C21.9896 18.5205 21.9953 18.1598 21.9854 14.9059L21.9744 11.3053L21.7459 11.813Z" fill="white"/>
</svg>

<svg width="22" height="19" fill="none" xmlns="http://www.w3.org/2000/svg"><path fill-rule="evenodd" clip-rule="evenodd" d="M8.119.062a.819.819 0 0 0-.237.196c-.073.098-.091.195-.103.56l-.015.44H6.081c-1.516 0-1.697.008-1.832.075a.766.766 0 0 0-.247.217c-.095.14-.098.172-.098 1.194v1.05H22l-.013-1.075c-.012-1.01-.018-1.081-.102-1.193a.79.79 0 0 0-.236-.193c-.133-.067-.313-.074-1.834-.074h-1.687V.868c0-.289-.02-.43-.075-.536a.782.782 0 0 0-.196-.233c-.09-.064-.186-.087-.373-.087s-.283.023-.373.087a.783.783 0 0 0-.197.233c-.055.107-.075.247-.075.536v.39h-3.266v-.39c0-.289-.02-.43-.075-.536a.783.783 0 0 0-.196-.233c-.09-.064-.187-.087-.373-.087-.187 0-.283.023-.373.087a.783.783 0 0 0-.197.233c-.055.107-.075.247-.075.536v.39H9.061v-.39c0-.289-.02-.43-.075-.536a.765.765 0 0 0-.19-.228.773.773 0 0 0-.323-.1.613.613 0 0 0-.354.058ZM3.847 5.543c-.016.265-.059.717-.096 1.004-.038.287-.125.8-.193 1.138-.07.34-.205.881-.3 1.205-.097.323-.274.835-.394 1.137-.12.302-.342.793-.493 1.09a15.7 15.7 0 0 1-.55.983c-.15.242-.416.626-.589.853a11.91 11.91 0 0 1-.752.864c-.334.345-.445.488-.467.604a.873.873 0 0 0-.003.28.76.76 0 0 0 .112.247.706.706 0 0 0 .232.187c.134.062.898.068 8.707.068 7.763 0 8.574-.006 8.705-.067.08-.038.326-.253.547-.48a11.682 11.682 0 0 0 1.355-1.719c.118-.188.312-.512.43-.722.118-.209.322-.61.454-.893.13-.282.327-.754.436-1.049.108-.295.264-.765.346-1.046a18.793 18.793 0 0 0 .509-2.475c.036-.29.077-.718.09-.95.013-.233.032-.495.044-.582l.02-.158H3.875l-.028.481Zm17.899 6.27c-.126.28-.355.733-.51 1.009a17.64 17.64 0 0 1-.64 1.029c-.195.29-.52.728-.719.972-.2.244-.568.64-.819.879-.334.318-.527.468-.725.559a2.613 2.613 0 0 1-.5.167c-.152.028-2.602.043-7.082.043H3.9l.012 1.074c.012 1.01.018 1.082.102 1.194a.792.792 0 0 0 .236.193c.14.07.625.074 8.742.064l8.595-.01.134-.095a.74.74 0 0 0 .204-.24c.064-.13.07-.491.06-3.745l-.012-3.6-.228.507Z" fill="#fff"/></svg>
